assets/avatar/default.svg

<svg fill="none" height="200" viewBox="0 0 200 200" width="200" xmlns="http://www.w3.org/2000/svg" xmlns:xlink="http://www.w3.org/1999/xlink"><clipPath id="a"><rect height="200" rx="100" width="200"/></clipPath><g clip-path="url(#a)"><path d="m121.333 116v16.333c0 2.889-42.6663 1.918-42.6663-2.248 0-3.92.08-21.684 0-39.9597-9.5546-12.3847-7.5545-34.6254.0001-42.6254 20.3332-23.4999 56.3332.0001 59.3332 9 3 9 4.035 32.3068 4.667 42.8335.254 4.2336 3 17.9996-7.667 17.9996z" fill="#e8e8e8"/><path d="m121.317 116.052c-8.686-.948-17.08-3.69-24.6505-8.052 0 0 5.3335 12.667 24.6505 16.104z" fill="#9b9b9b"/><path d="m170 162.205c4.231 8.603 7.564 22.825 10 42.666h-160c2.4364-19.843 5.7698-34.065 10-42.666 4.216-8.574 43.3333-25.073 43.3333-25.073s.7787-7.542 2.6667-8.623c1.888-1.082 45.751-1.081 48 0 2.249 1.08 2.667 8.619 2.667 8.619s39.125 16.521 43.333 25.077z" fill="#000"/></g></svg>

<svg width="200" height="208" viewBox="0 0 200 208" fill="none" xmlns="http://www.w3.org/2000/svg">
<g filter="url(#filter0_d_280_2678)">
<g clip-path="url(#clip0_280_2678)">
<path d="M121.333 116V132.333C121.333 135.222 78.6667 134.251 78.6667 130.085C78.6667 126.165 78.7467 108.401 78.6667 90.1253C69.1121 77.7406 71.1122 55.4999 78.6668 47.4999C99 24 135 47.5 138 56.4999C141 65.4999 142.035 88.8067 142.667 99.3334C142.921 103.567 145.667 117.333 135 117.333L121.333 116Z" fill="#E8E8E8"/>
<g style="mix-blend-mode:multiply">
<path d="M121.317 116.052C112.631 115.104 104.237 112.362 96.6665 108C96.6665 108 102 120.667 121.317 124.104V116.052Z" fill="#9B9B9B"/>
</g>
<path d="M170 162.205C174.231 170.808 177.564 185.03 180 204.871H20C22.4364 185.028 25.7698 170.806 30 162.205C34.216 153.631 73.3333 137.132 73.3333 137.132C73.3333 137.132 74.112 129.59 76 128.509C77.888 127.427 121.751 127.428 124 128.509C126.249 129.589 126.667 137.128 126.667 137.128C126.667 137.128 165.792 153.649 170 162.205Z" fill="black"/>
</g>
</g>
<defs>
<filter id="filter0_d_280_2678" x="-4" y="0" width="208" height="208" filterUnits="userSpaceOnUse" color-interpolation-filters="sRGB">
<feFlood flood-opacity="0" result="BackgroundImageFix"/>
<feColorMatrix in="SourceAlpha" type="matrix" values="0 0 0 0 0 0 0 0 0 0 0 0 0 0 0 0 0 0 127 0" result="hardAlpha"/>
<feOffset dy="4"/>
<feGaussianBlur stdDeviation="2"/>
<feComposite in2="hardAlpha" operator="out"/>
<feColorMatrix type="matrix" values="0 0 0 0 0 0 0 0 0 0 0 0 0 0 0 0 0 0 0.25 0"/>
<feBlend mode="normal" in2="BackgroundImageFix" result="effect1_dropShadow_280_2678"/>
<feBlend mode="normal" in="SourceGraphic" in2="effect1_dropShadow_280_2678" result="shape"/>
</filter>
<clipPath id="clip0_280_2678">
<rect width="200" height="200" rx="100" fill="white"/>
</clipPath>
</defs>
</svg>
